build/category/OrganisationOutline.svg

<svg xmlns="http://www.w3.org/2000/svg" fill="none" viewBox="0 0 24 24" focusable="false"><path d="M0 0H24V24H0z"/><path fill="#74767B" fill-rule="evenodd" d="M5.25313 4.6418L14.6768 4.6418L14.6768 10.0117L8.66731 10.0117C7.94934 10.0117 7.36731 10.5937 7.36731 11.3117L7.36731 19.7126L7.36738 19.7266L5.25313 19.7266L5.25313 4.6418ZM15.9768 4.6418L15.9768 10.0117L18.6893 10.0117C19.4072 10.0117 19.9893 10.5937 19.9893 11.3117L19.9893 19.7126C19.9893 20.4305 19.4072 21.0126 18.6893 21.0126L15.9885 21.0126C15.2706 21.0126 14.6885 20.4305 14.6885 19.7126L14.6885 16.3109L14.6885 15.0109L13.9885 15.0109L13.3885 15.0109L12.6885 15.0109L12.6885 16.3109L12.6885 19.7126C12.6885 20.4305 12.1065 21.0126 11.3885 21.0126L8.66731 21.0126L8.66512 21.0126C8.72694 21.0217 8.79018 21.0265 8.85451 21.0266L5.25313 21.0266C4.53515 21.0266 3.95312 20.4446 3.95312 19.7266L3.95312 4.6418C3.95312 3.92382 4.53515 3.3418 5.25313 3.3418L14.6768 3.3418C15.3948 3.3418 15.9768 3.92383 15.9768 4.6418ZM11.3885 15.0109C11.3885 14.293 11.9706 13.7109 12.6885 13.7109L14.6885 13.7109C15.4065 13.7109 15.9885 14.293 15.9885 15.0109L15.9885 19.7126L18.6893 19.7126L18.6893 11.3117L8.66731 11.3117L8.66731 19.7126L11.3885 19.7126L11.3885 15.0109ZM9.30642 7.91699C9.30642 8.27598 9.59744 8.56699 9.95642 8.56699C10.3154 8.56699 10.6064 8.27598 10.6064 7.91699L10.6064 6.35443C10.6064 5.99545 10.3154 5.70444 9.95642 5.70444C9.59743 5.70444 9.30642 5.99545 9.30642 6.35444L9.30642 7.91699ZM12.5663 8.56699C12.2073 8.56699 11.9163 8.27598 11.9163 7.91699L11.9163 6.35444C11.9163 5.99545 12.2073 5.70444 12.5663 5.70444C12.9253 5.70444 13.2163 5.99545 13.2163 6.35443L13.2163 7.91699C13.2163 8.27598 12.9253 8.56699 12.5663 8.56699ZM6.71365 7.91699C6.71365 8.27598 7.00466 8.56699 7.36365 8.56699C7.72263 8.56699 8.01365 8.27598 8.01365 7.91699L8.01365 6.35443C8.01365 5.99545 7.72263 5.70444 7.36365 5.70444C7.00466 5.70444 6.71365 5.99545 6.71365 6.35444L6.71365 7.91699Z"/></svg>

<svg xmlns="http://www.w3.org/2000/svg" fill="none" viewBox="0 0 24 24" focusable="false"><path fill="#74767B" fill-rule="evenodd" d="M5.25 4.64h9.42v5.37H8.66c-.72 0-1.3.58-1.3 1.3v8.41H5.25zm10.72 0v5.37h2.71c.72 0 1.3.58 1.3 1.3v8.4c0 .72-.58 1.3-1.3 1.3h-2.7c-.71 0-1.3-.58-1.3-1.3v-4.7h-2v4.7c0 .72-.58 1.3-1.3 1.3H8.66c.06.01.13.01.19.01h-3.6c-.72 0-1.3-.58-1.3-1.3V4.64c0-.72.58-1.3 1.3-1.3h9.42c.72 0 1.3.58 1.3 1.3m-4.59 10.37c0-.72.59-1.3 1.3-1.3h2c.72 0 1.3.58 1.3 1.3v4.7h2.7v-8.4H8.66v8.4h2.72zM9.3 7.91c0 .36.29.65.65.65s.65-.29.65-.65V6.35c0-.36-.29-.65-.65-.65s-.65.29-.65.65zm3.26.65c-.36 0-.65-.29-.65-.65V6.35c0-.36.29-.65.65-.65s.65.29.65.65v1.56c0 .36-.29.65-.65.65m-5.85-.65c0 .36.29.65.65.65s.65-.29.65-.65V6.35c0-.36-.29-.65-.65-.65s-.65.29-.65.65z"/></svg>
